src/components/profile_avatars/profile-male-1.svg

<svg xmlns="http://www.w3.org/2000/svg" width="528" height="528" fill="none" viewBox="0 0 528 528"><g clip-path="url(#a)"><ellipse cx="264" cy="271.959" fill="#9b67bc" rx="261" ry="257.959"/><path fill="#fefefe" d="M668.376 869.717c24.467 282.663 60.671 505.753-221.994 530.213-282.666 24.47-475.4726-206.74-499.9392-489.406-27.8641-339.806 38.5168-418.879 283.7842-478.269 79.146-69.561 376.228 28.16 429.671 121.864 118.661 208.061-4.125 169.988 8.478 315.598"/><path fill="#d69a77" d="M190.912 516.329c0-27.152-2.056-171.961 9.257-242.669 50.91-36.768 152.729-98.425 152.729-50.91 0 47.516 39.597 166.871 59.395 220.609-5.657 25.455-89.478 127.428-123.418 147.792-42.425 25.455-97.963-40.882-97.963-74.822"/><path fill="#b57752" d="m191.683 404.48-.771-17.742c63.509-29.826 192.531-83.03 188.212-57.113-5.4 32.397-49.367 82.536-101.82 92.563-41.962 8.022-74.822-8.195-85.621-17.708"/><path fill="#fefefe" d="m264.191 565.693 25.548-72.954c13.996 0 46.909 42.627 61.616 63.941v62.237H249.422l-63.138-36.66v-85.256l48.685-7.673z"/><path fill="#c4c4c4" d="M275.761 532.526c42.425 9.256 63.048 29.312 70.965 51.681-11.107-40.111-40.882-82.535-57.08-91.792zM251.078 529.44c-33.94 7.714-50.706 30.083-58.623 52.453 11.107-40.111 26.226-84.078 42.425-93.335z"/><path fill="#d69a77" d="M149.259 170.585c0-65.084 52.761-117.8448 117.844-117.8448 65.817 0 118.877 53.9108 117.83 119.7188l-1.793 112.702c-.964 60.558-48.003 110.361-108.408 114.776-67.766 4.953-125.473-48.69-125.473-116.637z"/><rect width="67.8796" height="101.819" x="361.475" y="154.561" fill="#d69a77" rx="33.9398" transform="rotate(19.0666 361.475 154.561)"/><rect width="67.8796" height="101.819" fill="#d69a77" rx="33.9398" transform="rotate(160.9334 76.7585085 92.3509368)scale(1 -1)"/><path fill="#4d301e" d="M151.596 162.277c0 20.364-5.422 42.424-8.485 60.95-.001-16.979-8.139-39.953-10.822-74.835-2.314-30.083 8.227-57.5871 13.885-63.2513-2.828-11.3057 5.887-33.0502 24.683-50.9114 15.428-14.6595 29.364-29.93138 72.508-33.16846 61.709-4.63002 94.899 6.17269 97.963 26.99396 6.942-1.5429 12.222 5.0684 25.454 13.8878 13.885 9.2543 25.455 27.1639 25.455 53.9957 0 25.4547 2.314 42.4237-2.314 63.2507-4.656 20.954-1.028 40.884-3.857 49.369 0 88.704-19.284-16.522-19.284-30.085 0-16.953-16.992-38.597-25.454-44.739-13.735-9.967 1.52-20.053-17.742-37.7957-13.955-12.8544-46.281 6.9417-74.822 8.4847-18.945 1.024-18.283-1.606-43.196-11.5707-19.284-7.7136-34.711 11.5727-34.711 28.5427s-19.261 4.615-19.261 40.882"/><path fill="#4d301e" d="M149.259 332.75c-4.21-21.049-8.485-107.476-8.485-135.759 5.657 22.626 16.353 89.94 23.141 110.304 3.905 11.716 11.827 28.023 23.14 30.852 0 0-3.856-3.857 6.943-33.94s83.306-28.54 100.276-1.54c11.405 18.146 13.113 28.537 15.428 35.48 25.454-5.4 38.98-18.061 47.052-35.48 14.656-31.626 10.799-110.302 30.083-105.676V298.81c0 50.91-37.961 70.895-67.879 93.334-33.94 25.455-67.88 25.455-101.82 16.97-24.694-6.173-59.394-33.939-67.879-76.364"/><path fill="#d69a77" d="M201.711 332.701c.001-31.582 12.732-33.122 40.737-33.122 18.67 0 39.886 0 43.279 24.649 2.315 16.816.913 23.946-8.422 23.946s-29.312-17.741-47.587-7c-27.71 16.287-28.007 0-28.007-8.473"/><path fill="#fdfcf5" d="M242.56 314.108c13.567-.51 30.681-5.644 36.24-8.361-5.465 5.223-14.723 22.066-31.681 22.702-23.2.871-30.31-15.357-36.151-20.156 5.747 2.294 18.026 6.324 31.592 5.815"/><path fill="#684630" d="M281.161 310.382c-3.561-2.231-4.628-6.176-15.427-9.26l12.43-.893c4.004 5.105 5.8 11.909 2.997 10.153"/><path fill="#eae9e9" d="M346.823 583.435c-10.165-28.114-39.643-80.083-57.177-91.158 0 0 22.108-11.076 57.177-53.673 35.068-42.597 46.185-64.978 46.185-64.978 52.452 51.681 50.138 46.281 33.94 87.163-23.304 58.816-58.779 96.52-80.125 122.646M192.013 583.435c10.079-28 23.212-79.604 42.866-94.877 0 0-24.789-14.191-35.544-38.336-10.756-24.144-7.652-41.114-7.652-41.114-31.625 27.769-35.482 43.196-29.311 85.621 5.8 39.876 8.475 62.686 29.641 88.706"/></g><defs><clipPath id="a"><path fill="#fff" d="M0 264C0 118.197 118.197 0 264 0s264 118.197 264 264-118.197 264-264 264S0 409.803 0 264"/></clipPath></defs></svg>

<svg width="528" height="528" viewBox="0 0 528 528" fill="none" xmlns="http://www.w3.org/2000/svg">
<g clip-path="url(#clip0_15658_177408)">
<ellipse cx="264" cy="271.959" rx="261" ry="257.959" fill="#9B67BC"/>
<path d="M668.376 869.717C692.843 1152.38 729.047 1375.47 446.382 1399.93C163.716 1424.4 -29.0906 1193.19 -53.5572 910.524C-81.4213 570.718 -15.0404 491.645 230.227 432.255C309.373 362.694 606.455 460.415 659.898 554.119C778.559 762.18 655.773 724.107 668.376 869.717Z" fill="#FEFEFE"/>
<path d="M190.912 516.329C190.912 489.177 188.856 344.368 200.169 273.66C251.079 236.892 352.898 175.235 352.898 222.75C352.898 270.266 392.495 389.621 412.293 443.359C406.636 468.814 322.815 570.787 288.875 591.151C246.45 616.606 190.912 550.269 190.912 516.329Z" fill="#D69A77"/>
<path d="M191.683 404.48L190.912 386.738C254.421 356.912 383.443 303.708 379.124 329.625C373.724 362.022 329.757 412.161 277.304 422.188C235.342 430.21 202.482 413.993 191.683 404.48Z" fill="#B57752"/>
<path d="M264.191 565.693L289.739 492.739C303.735 492.739 336.648 535.366 351.355 556.68V618.917H249.422L186.284 582.257V497.001L234.969 489.328L264.191 565.693Z" fill="#FEFEFE"/>
<path d="M275.761 532.526C318.186 541.782 338.809 561.838 346.726 584.207C335.619 544.096 305.844 501.672 289.646 492.415L275.761 532.526Z" fill="#C4C4C4"/>
<path d="M251.078 529.44C217.138 537.154 200.372 559.523 192.455 581.893C203.562 541.782 218.681 497.815 234.88 488.558L251.078 529.44Z" fill="#C4C4C4"/>
<path d="M149.259 170.585C149.259 105.501 202.02 52.7402 267.103 52.7402C332.92 52.7402 385.98 106.651 384.933 172.459L383.14 285.161C382.176 345.719 335.137 395.522 274.732 399.937C206.966 404.89 149.259 351.247 149.259 283.3V170.585Z" fill="#D69A77"/>
<rect x="361.475" y="154.561" width="67.8796" height="101.819" rx="33.9398" transform="rotate(19.0666 361.475 154.561)" fill="#D69A77"/>
<rect width="67.8796" height="101.819" rx="33.9398" transform="matrix(-0.94514 0.326667 0.326667 0.94514 179.474 154.561)" fill="#D69A77"/>
<path d="M151.596 162.277C151.596 182.641 146.174 204.701 143.111 223.227C143.11 206.248 134.972 183.274 132.289 148.392C129.975 118.309 140.516 90.8049 146.174 85.1407C143.346 73.835 152.061 52.0905 170.857 34.2293C186.285 19.5698 200.221 4.29792 243.365 1.06084C305.074 -3.56918 338.264 7.23353 341.328 28.0548C348.27 26.5119 353.55 33.1232 366.782 41.9426C380.667 51.1969 392.237 69.1065 392.237 95.9383C392.237 121.393 394.551 138.362 389.923 159.189C385.267 180.143 388.895 200.073 386.066 208.558C386.066 297.262 366.782 192.036 366.782 178.473C366.782 161.52 349.79 139.876 341.328 133.734C327.593 123.767 342.848 113.681 323.586 95.9383C309.631 83.0839 277.305 102.88 248.764 104.423C229.819 105.447 230.481 102.817 205.568 92.8523C186.284 85.1387 170.857 104.425 170.857 121.395C170.857 138.365 151.596 126.01 151.596 162.277Z" fill="#4D301E"/>
<path d="M149.259 332.75C145.049 311.701 140.774 225.274 140.774 196.991C146.431 219.617 157.127 286.931 163.915 307.295C167.82 319.011 175.742 335.318 187.055 338.147C187.055 338.147 183.199 334.29 193.998 304.207C204.797 274.124 277.304 275.667 294.274 302.667C305.679 320.813 307.387 331.204 309.702 338.147C335.156 332.747 348.682 320.086 356.754 302.667C371.41 271.041 367.553 192.365 386.837 196.991V298.81C386.837 349.72 348.876 369.705 318.958 392.144C285.018 417.599 251.078 417.599 217.138 409.114C192.444 402.941 157.744 375.175 149.259 332.75Z" fill="#4D301E"/>
<path d="M201.711 332.701C201.712 301.119 214.443 299.579 242.448 299.579C261.118 299.579 282.334 299.579 285.727 324.228C288.042 341.044 286.64 348.174 277.305 348.174C267.97 348.174 247.993 330.433 229.718 341.174C202.008 357.461 201.711 341.174 201.711 332.701Z" fill="#D69A77"/>
<path d="M242.56 314.108C256.127 313.598 273.241 308.464 278.8 305.747C273.335 310.97 264.077 327.813 247.119 328.449C223.919 329.32 216.809 313.092 210.968 308.293C216.715 310.587 228.994 314.617 242.56 314.108Z" fill="#FDFCF5"/>
<path d="M281.161 310.382C277.6 308.151 276.533 304.206 265.734 301.122L278.164 300.229C282.168 305.334 283.964 312.138 281.161 310.382Z" fill="#684630"/>
<path d="M346.823 583.435C336.658 555.321 307.18 503.352 289.646 492.277C289.646 492.277 311.754 481.201 346.823 438.604C381.891 396.007 393.008 373.626 393.008 373.626C445.46 425.307 443.146 419.907 426.948 460.789C403.644 519.605 368.169 557.309 346.823 583.435Z" fill="#EAE9E9"/>
<path d="M192.013 583.435C202.092 555.435 215.225 503.831 234.879 488.558C234.879 488.558 210.09 474.367 199.335 450.222C188.579 426.078 191.683 409.108 191.683 409.108C160.058 436.877 156.201 452.304 162.372 494.729C168.172 534.605 170.847 557.415 192.013 583.435Z" fill="#EAE9E9"/>
</g>
<defs>
<clipPath id="clip0_15658_177408">
<path d="M0 264C0 118.197 118.197 0 264 0C409.803 0 528 118.197 528 264C528 409.803 409.803 528 264 528C118.197 528 0 409.803 0 264Z" fill="white"/>
</clipPath>
</defs>
</svg>
